packages/icons/web/terminal_large.svg

<svg width="24" height="24" viewBox="0 0 24 24" fill="none" xmlns="http://www.w3.org/2000/svg">
<path fill-rule="evenodd" clip-rule="evenodd" d="M3 6C3 4.89543 3.89543 4 5 4H19C20.1046 4 21 4.89543 21 6V14C21 15.1046 20.1046 16 19 16H5C3.89543 16 3 15.1046 3 14V6ZM19 6L5 6V14H19V6Z" fill="#212933"/>
<path fill-rule="evenodd" clip-rule="evenodd" d="M7 19C7 18.4477 7.44772 18 8 18H16C16.5523 18 17 18.4477 17 19C17 19.5523 16.5523 20 16 20H8C7.44772 20 7 19.5523 7 19Z" fill="#212933"/>
<path fill-rule="evenodd" clip-rule="evenodd" d="M13 15L13 19L11 19L11 15L13 15Z" fill="#212933"/>
</svg>

<svg width="24" height="24" fill="none" xmlns="http://www.w3.org/2000/svg">
    <path fill-rule="evenodd" clip-rule="evenodd" d="M3 6a2 2 0 012-2h14a2 2 0 012 2v8a2 2 0 01-2 2H5a2 2 0 01-2-2V6zm16 0H5v8h14V6zM7 19a1 1 0 011-1h8a1 1 0 110 2H8a1 1 0 01-1-1z" fill="currentColor"/>
    <path fill-rule="evenodd" clip-rule="evenodd" d="M13 15v4h-2v-4h2z" fill="currentColor"/>
</svg>
